X:1
T:Title
%%score { ( 1 3 ) | ( 2 4 ) }
L:1/8
Q:1/4=100
M:6/8
K:F
V:1 treble nm="Grand Piano"
V:3 treble 
V:2 bass 
V:4 bass 
V:1
 CFG A2 A | c2 B A2 G | FGA Bc[Fd] | [Fc]6 | [EG][FA][GB] A2 c | GA[CGB] [CFA]2 [CGc] | %6
w: J.~W.~Lerman * * * *||||||
 [DFc][DF=B][CFA] [=B,FG]2 [Fd] | [CEc]6 | [DGB][Ac][Bd] [EG]2 [EG] | [FA][GB][Ac] [_Ad]2 [=Ac] | %10
w: ||||
 [GB][Ac][Bd] [EG]2 [EG] | [FA][GB][Ac] [_Ad]2 [=Ac] | [Fc][Fc][Fc] [FB]2 [FB] | [^FA]2 [FB] A2 G | %14
w: ||||
 GGG [FG]2 [FG] |[M:7/8] G3- [EG]3 z |[M:3/4] FA c e2 d | c2 [CEB] .[CFA]3 | %18
w: ||||
 [_E^Fc][EFc] [EFc] [DFB]2 [DFA] | [GB]6 | [CGB][CGc] [CGB] [CFA]2 [CFA] | %21
w: |||
 [B,EG][B,EA] [B,EG] F2 F | EA c c2 =B | [CA]3 .[EG]3 | FA c e2 d | c2 [EB] .[FA]3 | %26
w: |||||
 [FA][FA] [FA] [FB]2 [Fc] | [Fd]6 | [Fd][Fe] [Fd] [Fc]2 [Fc] | [Fd][Fe] [Fd] [Fc]2 A | %30
w: ||||
 cA F [Ec]2 [Ec] | F6 |] %32
w: ||
V:2
 [F,A,][F,A,C][F,B,C] [F,CF]2 [F,CF] | [F,EF]2 [F,DF] [F,CF]2 [B,CE] | %2
 [A,C][G,CE][F,CF] [D,B,][C,A,][B,,B,] | [F,A,]6 | [C,C][C,C][C,C][K:treble] [F,CF]2 [A,CF] | %5
 .E3[K:bass] z3 | D,D,D, G,2 [G,=B,] | C,6 | C,[C,C][C,C] [C,C]2 [C,C] | %9
 [F,C]2 [F,C] [F,B,]2 [F,C] | [C,C][C,C][C,C] [C,C]2 [C,C] | [F,C]2 [F,C] [F,=B,]2 [F,C] | %12
 [_E,A,][E,A,][E,A,] [D,B,]2 [D,B,] | [D,C]2 [D,D] [G,CD]2 [G,B,D] | %14
 [G,B,D][G,B,D][G,B,D] [^C,B,]2 [C,B,] |[M:7/8] [C,B,]-[C,B,]-[C,B,]- [C,B,]3 z | %16
[M:3/4] [F,A,][K:treble][F,CF] [A,CF] [_A,=B,F]2 [A,B,F] | [G,B,E]2[K:bass] C, .F,3 | %18
 D,D, D, D,2 D, | G,3 F,3 | E,E, E, F,2 F, | ^C,C, C, [D,A,D]2 [D,A,D] | %22
 [E,A,C][E,A,C] [E,A,E] [E,_A,E]2 [E,A,D] | [A,,A,]3 .[C,B,]3 | %24
 [F,A,][K:treble][F,CF] [A,CF] [_A,=B,F]2 [A,B,F] | [G,B,E]2[K:bass] [C,C] .[F,C]3 | %26
 [_E,C][E,C] [E,C] [D,B,]2 [C,A,] | [B,,B,]6 | [=B,,_A,][B,,A,] [B,,A,] [C,=A,]2 [C,A,] | %29
 [=B,,_A,][B,,A,] [B,,A,] [C,=A,]2 A, | CA, F, [C,G,]2 [C,B,] | [F,A,]6 |] %32
V:3
 x6 | x6 | z3 .F3 | x6 | x6 | x6 | x6 | x6 | x6 | x6 | x6 | x6 | x6 | x6 | x6 |[M:7/8] F3 z z z2 | %16
[M:3/4] x6 | x6 | x6 | D3 ^C3 | x6 | x6 | x6 | x6 | x6 | x6 | x6 | x6 | x6 | x6 | x6 | x6 |] %32
V:4
 x6 | x6 | x6 | x6 | x3[K:treble] x3 | C-[CF][K:bass]C, F,2 E, | x6 | x6 | x6 | x6 | x6 | x6 | x6 | %13
 x6 | x6 |[M:7/8] x7 |[M:3/4] x[K:treble] x5 | x2[K:bass] x4 | x6 | x6 | x6 | x6 | x6 | x6 | %24
 x[K:treble] x5 | x2[K:bass] x4 | x6 | x6 | x6 | x6 | x6 | x6 |] %32

